X:113
T:Trip To The Parish. JaW.113
M:C|
L:1/8
Q:1/2=90
S:James Winder Ms, Lancashire, 1835-41
R:.Country Dance
O:England
A:Wyresdale,Lancashire
N:The final
Z:vmp.Chris Partington, Aug 2004
K:G
G2 (Bd) cAFD|GBdg d2cB|ceAc BdGB|AcAF G2A,2:|!
|:gbeg fadf|egfe d2d2|ceAc BdGB|AcAF G2A,2:|

